!!!OTL: Graf und Nonne (Die Nonne) Ach was soll denn schoener sein
!!!ARE: Europa, Mitteleuropa, Oesterreich, Burgenland, Pamhagen
!!!YOR: 8, S. 72
!!    1929 aufgezeichnet
!!!SCT: Q0155U
!!!YEM: Copyright 1995, estate of Helmut Schaffrath.
**kern
*ICvox
*Ivox
*M4/4
*k[f#]
*G:
{4g
4b
=1
4dd
4dd
4cc
4dd
=2
2b}
{4g
4b
=3
4dd
4dd
4cc
4dd
=4
2b}
{4a
4a
=5
4b
4b
4cc#
4a
=6
4dd
4dd}
{4a
4a
=7
4b
4b
4cc#
4a
=8
4dd
4dd}
{4gg
4dd
=9
4dd
4cc
4b
4cc
=10
2dd}
{4dd
4cc
=11
4b
4b
4a
4a
=12
2g}
==
!!!AGN: Ballade, Standesunterschied, Werbung, Liebe, Glueck
!!!ONB: ESAC (Essen Associative Code) Database: BALLADE
!!!AMT: simple quadruple
!!!AIN: vox
!!!EED: Helmut Schaffrath
!!!EEV: 1.0
*-
